images/logotypes/logo_6.svg

<svg width="166" height="71" viewBox="0 0 166 71" fill="none" xmlns="http://www.w3.org/2000/svg">
<rect x="0.98584" y="0.411865" width="164.097" height="70" rx="35" fill="white"/>
<path d="M40.9858 39.4265H43.504V51.7738H40.9858V39.4265Z" fill="#252525"/>
<path d="M44.9643 47.5432C44.9627 46.6563 45.2241 45.7889 45.7156 45.0507C46.2071 44.3124 46.9066 43.7366 47.7255 43.3961C48.5443 43.0556 49.4458 42.9656 50.3159 43.1376C51.1859 43.3096 51.9854 43.7358 52.613 44.3624C53.2408 44.9889 53.6685 45.7875 53.8421 46.6572C54.0158 47.5269 53.9275 48.4286 53.5885 49.2482C53.2495 50.0676 52.675 50.7682 51.9377 51.261C51.2004 51.754 50.3335 52.017 49.4466 52.017C48.8568 52.0238 48.2716 51.9128 47.7253 51.6904C47.179 51.4681 46.6826 51.1389 46.2651 50.7222C45.8477 50.3056 45.5176 49.8098 45.2942 49.2638C45.0708 48.7179 44.9587 48.133 44.9643 47.5432ZM51.3939 47.5432C51.3841 47.1603 51.2615 46.7889 51.0416 46.4754C50.8217 46.1618 50.5142 45.9201 50.1576 45.7803C49.801 45.6406 49.4111 45.6092 49.0368 45.6899C48.6624 45.7707 48.3202 45.96 48.0528 46.2342C47.7855 46.5084 47.605 46.8555 47.5338 47.2318C47.4626 47.6081 47.504 47.9971 47.6528 48.3499C47.8016 48.7028 48.0511 49.0041 48.3701 49.2159C48.6892 49.4277 49.0636 49.5408 49.4466 49.5409C49.7086 49.5483 49.9693 49.5012 50.2122 49.4027C50.4552 49.3042 50.6751 49.1565 50.8581 48.9688C51.041 48.7811 51.1832 48.5575 51.2753 48.3122C51.3676 48.0667 51.408 47.805 51.3939 47.5432Z" fill="#252525"/>
<path d="M64.0519 43.3129V51.3541C64.0519 54.1996 61.8275 55.4 59.578 55.4C58.787 55.4588 57.995 55.2988 57.2888 54.9376C56.5826 54.5763 55.9894 54.0277 55.5742 53.3519L57.7398 52.1012C57.9116 52.4475 58.1835 52.7344 58.5202 52.9244C58.857 53.1144 59.243 53.1991 59.6284 53.1672C59.8819 53.2095 60.1418 53.1929 60.3881 53.1188C60.6343 53.0448 60.8602 52.9152 61.0483 52.74C61.2364 52.5648 61.3818 52.3487 61.4733 52.1084C61.5648 51.8681 61.5998 51.6101 61.5757 51.3541V50.5735C61.2797 50.9377 60.9019 51.2271 60.4732 51.4181C60.0445 51.6091 59.5768 51.6965 59.108 51.6731C57.9682 51.6731 56.8751 51.2203 56.0691 50.4144C55.2631 49.6084 54.8103 48.5153 54.8103 47.3754C54.8103 46.2356 55.2631 45.1426 56.0691 44.3366C56.8751 43.5306 57.9682 43.0779 59.108 43.0779C59.5765 43.0564 60.0435 43.1447 60.472 43.3355C60.9004 43.5265 61.2784 43.8147 61.5757 44.1774V43.338L64.0519 43.3129ZM61.5757 47.3754C61.5925 46.9673 61.4867 46.5634 61.2722 46.2156C61.0575 45.868 60.7438 45.5924 60.3714 45.4245C59.9989 45.2565 59.5847 45.2038 59.182 45.2731C58.7794 45.3424 58.4066 45.5306 58.1118 45.8133C57.8169 46.0962 57.6133 46.4607 57.5273 46.8601C57.4411 47.2594 57.4765 47.6755 57.6288 48.0546C57.7811 48.4338 58.0432 48.7587 58.3816 48.9877C58.72 49.2168 59.1191 49.3393 59.5276 49.3396C59.7944 49.3585 60.062 49.3213 60.3134 49.2304C60.5649 49.1394 60.7945 48.997 60.9874 48.8119C61.1803 48.6268 61.3324 48.4034 61.4338 48.156C61.5351 47.9086 61.5834 47.6427 61.5757 47.3754Z" fill="#252525"/>
<path d="M65.5041 47.5432C65.5024 46.6563 65.7639 45.7889 66.2554 45.0507C66.747 44.3124 67.4464 43.7366 68.2653 43.3961C69.0841 43.0556 69.9856 42.9656 70.8557 43.1376C71.7257 43.3096 72.5252 43.7358 73.1529 44.3624C73.7805 44.9889 74.2083 45.7875 74.382 46.6572C74.5556 47.5269 74.4673 48.4286 74.1283 49.2482C73.7892 50.0676 73.2148 50.7682 72.4775 51.261C71.7402 51.754 70.8733 52.017 69.9864 52.017C69.3966 52.0238 68.8114 51.9128 68.2651 51.6904C67.7188 51.4681 67.2223 51.1389 66.8049 50.7222C66.3875 50.3056 66.0574 49.8098 65.834 49.2638C65.6106 48.7179 65.4984 48.133 65.5041 47.5432ZM71.9338 47.5432C71.9238 47.1603 71.8013 46.7889 71.5813 46.4754C71.3614 46.1618 71.054 45.9201 70.6973 45.7803C70.3408 45.6406 69.9509 45.6092 69.5765 45.6899C69.2021 45.7707 68.8599 45.96 68.5925 46.2342C68.3253 46.5084 68.1447 46.8555 68.0735 47.2318C68.0024 47.6081 68.0438 47.9971 68.1925 48.3499C68.3413 48.7028 68.5909 49.0041 68.9099 49.2159C69.229 49.4277 69.6034 49.5408 69.9864 49.5409C70.247 49.5459 70.5059 49.4971 70.7469 49.3976C70.9877 49.298 71.2056 49.1499 71.3868 48.9625C71.5679 48.7751 71.7085 48.5523 71.7997 48.3081C71.8909 48.0639 71.9309 47.8035 71.917 47.5432H71.9338Z" fill="#252525"/>
<path d="M75.6355 41.0462C75.6355 40.7441 75.7251 40.4487 75.8929 40.1975C76.0608 39.9463 76.2994 39.7505 76.5785 39.6348C76.8577 39.5192 77.1648 39.489 77.4612 39.5479C77.7575 39.6068 78.0297 39.7524 78.2434 39.966C78.4571 40.1796 78.6025 40.4518 78.6614 40.7482C78.7205 41.0445 78.6902 41.3517 78.5746 41.6308C78.459 41.9099 78.2631 42.1486 78.0119 42.3164C77.7606 42.4843 77.4654 42.5739 77.1631 42.5739C76.7587 42.5717 76.3714 42.41 76.0854 42.124C75.7993 41.838 75.6377 41.4507 75.6355 41.0462ZM75.8957 43.3125H78.4138V51.7735H75.8957V43.3125Z" fill="#252525"/>
<path d="M89.3928 47.5434C89.4232 48.1027 89.3429 48.6625 89.1562 49.1906C88.9695 49.7187 88.6802 50.2046 88.3049 50.6205C87.9297 51.0363 87.4759 51.3738 86.9697 51.6135C86.4634 51.8533 85.9148 51.9905 85.3553 52.0173C84.8857 52.0398 84.4167 51.9591 83.9817 51.7807C83.5466 51.6023 83.1559 51.3307 82.8372 50.9849V55.1818H80.3191V43.3129H82.8372V44.1103C83.1559 43.7646 83.5466 43.4929 83.9817 43.3145C84.4167 43.1361 84.8857 43.0554 85.3553 43.0779C85.9141 43.1047 86.462 43.2417 86.9676 43.4809C87.4733 43.7202 87.9267 44.0569 88.3018 44.4719C88.677 44.8868 88.9664 45.3717 89.1536 45.8988C89.3409 46.4259 89.4222 46.9848 89.3928 47.5434ZM86.8746 47.5434C86.8647 47.1494 86.7393 46.767 86.5142 46.4436C86.289 46.1202 85.974 45.8698 85.6081 45.7237C85.2421 45.5775 84.8412 45.5418 84.4553 45.6212C84.0692 45.7005 83.7149 45.8913 83.4362 46.17C83.1576 46.4486 82.9668 46.8029 82.8874 47.1889C82.8082 47.575 82.8438 47.9758 82.9899 48.3417C83.1362 48.7077 83.3865 49.0228 83.7099 49.2478C84.0334 49.473 84.4158 49.5983 84.8097 49.6083C85.0847 49.6258 85.3601 49.5842 85.6177 49.4864C85.8753 49.3886 86.1089 49.2367 86.3029 49.0412C86.4969 48.8455 86.6468 48.6107 86.7425 48.3524C86.8382 48.0941 86.8776 47.8182 86.8578 47.5434H86.8746Z" fill="#252525"/>
<path d="M97.2329 49.2389C97.2329 51.1863 95.5541 52.0172 93.7075 52.0172C92.9698 52.0825 92.2294 51.9255 91.5817 51.5665C90.9341 51.2075 90.4086 50.6629 90.073 50.0027L92.2722 48.752C92.3614 49.0574 92.5525 49.323 92.8136 49.5047C93.0748 49.6863 93.3901 49.7733 93.7075 49.7509C94.3203 49.7509 94.6224 49.5578 94.6224 49.2221C94.6224 48.2903 90.4255 48.7856 90.4255 45.8646C90.4255 44.0179 91.9868 43.0862 93.783 43.0862C94.4459 43.0661 95.1021 43.2235 95.6836 43.5424C96.2651 43.8611 96.7507 44.3296 97.0902 44.8992L94.8827 46.0576C94.7852 45.836 94.6253 45.6473 94.4227 45.5147C94.22 45.3821 93.9833 45.3112 93.7411 45.3105C93.3046 45.3105 93.036 45.4784 93.036 45.789C93.0696 46.7543 97.2329 46.108 97.2329 49.2389Z" fill="#252525"/>
<path d="M106.499 43.313V51.7739H103.981V50.985C103.688 51.3355 103.316 51.6118 102.896 51.7913C102.476 51.9707 102.019 52.0482 101.564 52.0174C99.8849 52.0174 98.3992 50.8003 98.3992 48.5088V43.313H100.917V48.1395C100.895 48.3452 100.919 48.5532 100.987 48.7484C101.056 48.9437 101.167 49.1213 101.312 49.2684C101.457 49.4156 101.634 49.5284 101.828 49.5988C102.023 49.6692 102.231 49.6954 102.437 49.6756C103.36 49.6756 104.006 49.1383 104.006 47.938V43.313H106.499Z" fill="#252525"/>
<path d="M121.054 46.5861V51.7735H118.536V46.8044C118.536 45.9651 118.125 45.411 117.319 45.411C116.513 45.411 115.993 46.007 115.993 47.0059V51.7735H113.475V46.8044C113.475 45.9651 113.072 45.411 112.258 45.411C111.443 45.411 110.94 46.007 110.94 47.0059V51.7735H108.422V43.3126H110.94V44.0932C111.203 43.7484 111.548 43.4749 111.944 43.2976C112.34 43.1202 112.774 43.0445 113.206 43.0776C113.64 43.0564 114.073 43.1483 114.461 43.3438C114.849 43.5395 115.18 43.8324 115.422 44.194C115.703 43.8159 116.075 43.5152 116.504 43.32C116.932 43.1248 117.403 43.0413 117.873 43.0776C119.787 43.0776 121.054 44.4709 121.054 46.5861Z" fill="#252525"/>
<path d="M123.203 43.2629C124.242 43.2629 125.083 42.421 125.083 41.3826C125.083 40.3442 124.242 39.5024 123.203 39.5024C122.165 39.5024 121.323 40.3442 121.323 41.3826C121.323 42.421 122.165 43.2629 123.203 43.2629Z" fill="#252525"/>
<path d="M69.4826 33.0221C74.3455 33.0221 78.2877 29.0799 78.2877 24.2169C78.2877 19.354 74.3455 15.4119 69.4826 15.4119C64.6197 15.4119 60.6775 19.354 60.6775 24.2169C60.6775 29.0799 64.6197 33.0221 69.4826 33.0221Z" fill="#252525"/>
<path d="M89.1662 33.0221C94.0291 33.0221 97.9713 29.0799 97.9713 24.2169C97.9713 19.354 94.0291 15.4119 89.1662 15.4119C84.3033 15.4119 80.3611 19.354 80.3611 24.2169C80.3611 29.0799 84.3033 33.0221 89.1662 33.0221Z" fill="#252525"/>
<path d="M58.6045 15.4119H41.0027V33.0136H58.6045V15.4119Z" fill="#252525"/>
</svg>

<svg width="166" height="71" fill="none" xmlns="http://www.w3.org/2000/svg"><rect x=".986" y=".412" width="164.097" height="70" rx="35" fill="#fff"/><path d="M40.986 39.426h2.518v12.348h-2.518V39.426Zm3.978 8.117a4.483 4.483 0 1 1 4.483 4.474 4.43 4.43 0 0 1-4.483-4.474Zm6.43 0a1.946 1.946 0 1 0-1.947 1.998 1.895 1.895 0 0 0 1.947-1.998Z" fill="#252525"/><path d="M64.052 43.313v8.041c0 2.846-2.225 4.046-4.474 4.046a4.323 4.323 0 0 1-4.004-2.048l2.166-1.25a1.93 1.93 0 0 0 1.888 1.065 1.678 1.678 0 0 0 1.948-1.813v-.78a2.988 2.988 0 0 1-2.468 1.1 4.298 4.298 0 0 1 0-8.596 3.014 3.014 0 0 1 2.468 1.1v-.84l2.476-.025Zm-2.476 4.062a2.05 2.05 0 1 0-2.048 1.965 1.913 1.913 0 0 0 2.048-1.965Zm3.928.168a4.482 4.482 0 1 1 4.482 4.474 4.43 4.43 0 0 1-4.482-4.474Zm6.43 0a1.947 1.947 0 1 0-1.948 1.998 1.898 1.898 0 0 0 1.931-1.998h.017Zm3.701-6.497a1.528 1.528 0 1 1 1.528 1.528 1.536 1.536 0 0 1-1.528-1.528Zm.26 2.267h2.519v8.46h-2.518v-8.46Zm13.498 4.23a4.25 4.25 0 0 1-4.038 4.474 3.215 3.215 0 0 1-2.518-1.032v4.197H80.32v-11.87h2.518v.798a3.216 3.216 0 0 1 2.518-1.032 4.246 4.246 0 0 1 4.038 4.465Zm-2.518 0a2.014 2.014 0 1 0-2.065 2.065 1.93 1.93 0 0 0 2.048-2.065h.017Zm10.358 1.696c0 1.947-1.679 2.778-3.526 2.778a3.71 3.71 0 0 1-3.634-2.014l2.2-1.251a1.393 1.393 0 0 0 1.434.999c.613 0 .915-.193.915-.529 0-.932-4.197-.436-4.197-3.357 0-1.847 1.562-2.779 3.358-2.779A3.718 3.718 0 0 1 97.09 44.9l-2.207 1.159a1.251 1.251 0 0 0-1.142-.748c-.436 0-.705.168-.705.479.034.965 4.197.319 4.197 3.45Zm9.266-5.926v8.46h-2.518v-.788a2.9 2.9 0 0 1-2.417 1.032c-1.68 0-3.165-1.217-3.165-3.508v-5.196h2.518v4.826a1.399 1.399 0 0 0 .395 1.13 1.39 1.39 0 0 0 1.125.407c.923 0 1.569-.538 1.569-1.738v-4.625h2.493Zm14.555 3.273v5.188h-2.518v-4.97c0-.839-.411-1.393-1.217-1.393s-1.326.596-1.326 1.595v4.767h-2.518v-4.969c0-.839-.403-1.393-1.217-1.393-.815 0-1.318.596-1.318 1.595v4.767h-2.518v-8.46h2.518v.78a2.598 2.598 0 0 1 2.266-1.015 2.518 2.518 0 0 1 2.216 1.116 2.785 2.785 0 0 1 2.451-1.116c1.914 0 3.181 1.393 3.181 3.508Zm2.149-3.323a1.88 1.88 0 1 0 0-3.76 1.88 1.88 0 0 0 0 3.76Zm-53.72-10.241a8.805 8.805 0 1 0 0-17.61 8.805 8.805 0 0 0 0 17.61Zm19.683 0a8.805 8.805 0 1 0 0-17.61 8.805 8.805 0 0 0 0 17.61Zm-30.561-17.61H41.002v17.602h17.602V15.412Z" fill="#252525"/></svg>
